dist/intermediate-svg/remove.svg

<?xml version="1.0" encoding="utf-8"?><svg width="13" height="14" fill="none" xmlns="http://www.w3.org/2000/svg" viewBox="0 0 13 14"><path d="M1.46039 12.88C1.46039 13.496 1.96439 14 2.58039 14H10.4204C11.0364 14 11.5404 13.496 11.5404 12.88V3.92H1.46039V12.88ZM8.74039 6.16C8.74039 5.824 8.96439 5.6 9.30039 5.6C9.63639 5.6 9.86039 5.824 9.86039 6.16V11.76C9.86039 12.096 9.63639 12.32 9.30039 12.32C8.96439 12.32 8.74039 12.096 8.74039 11.76V6.16ZM5.94039 6.16C5.94039 5.824 6.16439 5.6 6.50039 5.6C6.83639 5.6 7.06039 5.824 7.06039 6.16V11.76C7.06039 12.096 6.83639 12.32 6.50039 12.32C6.16439 12.32 5.94039 12.096 5.94039 11.76V6.16ZM3.14039 6.16C3.14039 5.824 3.36439 5.6 3.70039 5.6C4.03639 5.6 4.26039 5.824 4.26039 6.16V11.76C4.26039 12.096 4.03639 12.32 3.70039 12.32C3.36439 12.32 3.14039 12.096 3.14039 11.76V6.16ZM12.1004 1.68V2.8H0.900391V1.68C0.900391 1.344 1.12439 1.12 1.46039 1.12H4.82039V0.56C4.82039 0.224 5.04439 0 5.38039 0H7.62039C7.95639 0 8.18039 0.224 8.18039 0.56V1.12H11.5404C11.8764 1.12 12.1004 1.344 12.1004 1.68Z" fill="#D9534F"/></svg>

<?xml version="1.0" encoding="utf-8"?><svg width="13" height="14" fill="none" xmlns="http://www.w3.org/2000/svg" viewBox="0 0 13 14"><path d="M1.46 12.88c0 .616.504 1.12 1.12 1.12h7.84c.616 0 1.12-.504 1.12-1.12V3.92H1.46v8.96zm7.28-6.72c0-.336.224-.56.56-.56.336 0 .56.224.56.56v5.6c0 .336-.224.56-.56.56-.336 0-.56-.224-.56-.56v-5.6zm-2.8 0c0-.336.224-.56.56-.56.336 0 .56.224.56.56v5.6c0 .336-.224.56-.56.56-.336 0-.56-.224-.56-.56v-5.6zm-2.8 0c0-.336.224-.56.56-.56.336 0 .56.224.56.56v5.6c0 .336-.224.56-.56.56-.336 0-.56-.224-.56-.56v-5.6zm8.96-4.48V2.8H.9V1.68c0-.336.224-.56.56-.56h3.36V.56c0-.336.224-.56.56-.56h2.24c.336 0 .56.224.56.56v.56h3.36c.336 0 .56.224.56.56z" fill="#D9534F"/></svg>
